X:1
T:D minor German Psalter, 1537
T:William Kethe, 1561 86. 86. (C. M.)
T:Psalm 112 No copyright. Transcribed from The Scottish Psalter, 1635.
%%score [ 1 2 3 4 ]
L:1/8
M:6/4
K:C
V:1 treble nm="Treble" snm="Tr."
V:2 treble nm="Counter" snm="C."
V:3 treble-8 nm="Tenor" snm="T."
V:4 bass nm="Bass" snm="B."
V:1
 c4 f2 d2 e2 fe | d2 (d4 c2) d4 || d4 d2 d2 e2 f2 | d4 d4 ^c4 || d4 e2 fg a2 a2 | a4 (a3 g) f4 || %6
w: 1.~The man is blest that *|God doth * fear,|And that His laws do|love in- deed.|His seed on * earth God|will up- * rear,|
 f4 g2 f2 e2 e2 | (c2 d2) e4 e4 || f4 e2 e2 e2 f2 | f4 g4 a4 || f4 g2 f3 e d2 | %11
w: And bless such as from|him * pro- ceed.|His house with good he|will ful- fill,|His right- eous- ness en-|
[M:8/4] a4 (a3 g) ^f8 |] %12
w: dure shall * still.|
V:2
 E4 F2 A2 c2 c2 | A4 A4 A4 || F4 D2 D2 A2 c2 | F4 D4 E4 || F4 A2 A2 A2 c2 | A4 A4 A4 || %6
w: 2.~Un- to the right- eous|doth a- rise,|In trou- bles joy, in|dark- ness light:|Com- pas- sion ev- er|in his eyes,|
 A4 c2 A2 A2 G2 | A4 B4 ^c4 || A4 A2 G2 G2 c2 | (c2 A2) c4 A4 || d4 d2 d2 A2 d2 | %11
w: And mer- cy al- ways|in his sight.|Yea, pi- ty mo- veth|such * to lend,|He doth my judg- ment|
[M:8/4] (^c2 d3) (e c2) d8 |] %12
w: things * ex- * pend.|
V:3
 A4 A2 F2 G2 A2 | F4 E4 D4 || A4 A2 G2 c2 A2 | F4 G4 A4 || A4 c2 d2 f2 e2 | d4 ^c4 d4 || %6
w: 3.~And sure- ly such shall|ne- ver fail,|For in re- mem- brance|had is he:|No ti- dings ill can|make him quail,|
 d4 e2 d2 c2 B2 | A4 ^G4 A4 || d4 c2 B2 c2 A2 | A4 G4 F4 || A4 _B2 A2 F2 G2 |[M:8/4] F4 E4 D8 |] %12
w: Who in the Lord sure|hope doth see.|His heart is firm, his|fear is past,|For he shall see his|foes down- cast.|
V:4
 A,,4 D,2 D,2 C,2 A,,2 | D,4 A,,4 D,,4 || D,4 D,2 G,,2 A,,2 F,,2 | _B,,4 B,,4 A,,4 || %4
w: 4.~He did well for the|poor pro- vide,|His right- eous- ness shall|still re- main;|
 D,4 A,,2 D,2 D,2 C,2 | D,4 A,,4 D,,4 || D,4 C,2 D,2 A,,2 E,2 | F,4 E,4 A,,4 || %8
w: And his e- state with|praise a- bide,|Though that the wick- ed|man dis- dain:|
 D,4 A,,2 E,2 C,2 F,2 | F,4 C,4 F,,4 || D,4 G,,2 D,2 D,2 G,,2 |[M:8/4] A,,4 A,,4 D,,8 |] %12
w: Yea, gnash his teeth there-|at shall he,|And so con- sume his|state to see.|

